svg/cervical_cancer_negative.svg

<?xml version="1.0" encoding="UTF-8" standalone="no"?>
<!-- Created with Inkscape (http://www.inkscape.org/) -->
<svg id="svg8" xmlns:rdf="http://www.w3.org/1999/02/22-rdf-syntax-ns#" xmlns="http://www.w3.org/2000/svg" xmlns:osb="http://www.openswatchbook.org/uri/2009/osb" height="48" width="48" version="1.1" xmlns:cc="http://creativecommons.org/ns#" viewBox="0 0 12.7 12.7" xmlns:dc="http://purl.org/dc/elements/1.1/">
 <title id="title4753">UIO-icon</title>
 <metadata id="metadata5">
  <rdf:RDF>
   <cc:Work rdf:about="">
    <dc:format>image/svg+xml</dc:format>
    <dc:type rdf:resource="http://purl.org/dc/dcmitype/StillImage"/>
    <dc:title>UIO-icon</dc:title>
    <dc:creator>
     <cc:Agent>
      <dc:title>Joaquín Urbano</dc:title>
     </cc:Agent>
    </dc:creator>
    <dc:rights>
     <cc:Agent>
      <dc:title>GPL</dc:title>
     </cc:Agent>
    </dc:rights>
   </cc:Work>
  </rdf:RDF>
 </metadata>
 <g id="layer1" transform="translate(0,-284.3)">
  <path id="rect2923" d="m0 0v48h48v-48zm24.002 4.0273c2.4251 0 4.3906 1.9655 4.3906 4.3906 1e-8 2.4251-1.9655 4.3906-4.3906 4.3906s-4.3926-1.9655-4.3926-4.3906 1.9675-4.3906 4.3926-4.3906zm-0.4375 9.8633h4.8613v0.009766c0.7218 0.009388 1.4106 0.4081 1.75 1.1035l4.8535 9.9434c0.48037 0.98433 0.076121 2.1641-0.9082 2.6445-0.98433 0.48033-2.1642 0.076126-2.6445-0.9082l-3.0508-6.252c0 4.7216 0.49095 7.8514 2.7871 12.643h-2.7871v8.9199c0 1.0953-0.88128 1.9785-1.9766 1.9785s-1.9785-0.88323-1.9785-1.9785v-8.9199h-0.95312v8.9219c0 1.0953-0.88128 1.9766-1.9766 1.9766s-1.9746-0.88128-1.9746-1.9766v-8.9219h-2.7812c2.5658-4.968 2.8555-8.3788 2.7812-12.627l-3.043 6.2363c-0.48037 0.98447-1.6583 1.3886-2.6426 0.9082-0.982-0.48-1.391-1.659-0.91-2.644l4.8555-9.9434c0.33794-0.69253 1.0237-1.0874 1.7422-1.1016v-0.009766zm0.44336 10.771c-0.41183-0.003616-0.83392 0.037455-1.2676 0.13281 0.16413 0.66717 0.3644 0.96869 0.62109 1.4102 0.32475-0.098022 0.85885-0.16012 1.1836-0.013672 0.3518-0.50943 0.52568-0.96305 0.67188-1.3965-0.39452-0.081834-0.79715-0.12941-1.209-0.13281zm-1.4121 0.27148-0.25977 0.75c-0.20252 0.58656-0.26239 0.82627-0.2793 1.0977-0.024991 0.40116-0.038954 0.36862 0.42773 1.0566 0.18765 0.27667 0.35219 0.50343 0.36523 0.50391 0.028766 0.0008912 0.89062-1.1841 0.89062-1.2246-1e-8 -0.016025-0.17115-0.28583-0.38086-0.60156-0.43346-0.65262-0.67426-1.1154-0.72656-1.3926zm2.7773 0-0.039062 0.20312c-0.049214 0.2487-0.31667 0.76182-0.70312 1.3535-1.4986 2.1074-2.6852 3.7053-4.2852 5.8828 0.32434 0.43928 0.67016 0.91921 1.0312 1.3008 1.582-2.549 3.197-3.999 4.53-6.548 0.058358-0.29904-0.008859-0.64792-0.27148-1.4199zm-0.24609 4.0508-0.42969 0.61133c-0.23738 0.33648-0.44064 0.64043-0.45117 0.67578-0.010574 0.03549 0.17956 0.34358 0.42188 0.68555 0.6845 0.95299 1.2503 1.8049 1.9492 2.7441 0.36772-0.45739 0.62949-0.81946 1.0059-1.3242-0.83157-1.1314-1.6644-2.2613-2.4961-3.3926z" fill-rule="evenodd" transform="matrix(.26458 0 0 .26458 0 284.3)" fill="#333"/>
 </g>
</svg>

<svg width="48" height="48" viewBox="0 0 48 48" fill="none" xmlns="http://www.w3.org/2000/svg">
<path fill-rule="evenodd" clip-rule="evenodd" d="M0 0V47.9994H47.9994V0H0ZM24.0017 4.02725C26.4268 4.02725 28.3922 5.99273 28.3922 8.41779C28.3922 10.8429 26.4268 12.8083 24.0017 12.8083C21.5766 12.8083 19.6092 10.8429 19.6092 8.41779C19.6092 5.99273 21.5766 4.02725 24.0017 4.02725ZM23.5642 13.8904H28.4254V13.9002C29.1472 13.9096 29.836 14.3083 30.1754 15.0037L35.0289 24.947C35.5092 25.9313 35.105 27.111 34.1207 27.5914C33.1364 28.0717 31.9565 27.6675 31.4762 26.6832L28.4254 20.4313C28.4254 25.1529 28.9164 28.2826 31.2125 33.0742H28.4254V41.9939C28.4254 43.0892 27.5442 43.9724 26.4489 43.9724C25.3536 43.9724 24.4704 43.0892 24.4704 41.9939V33.0742H23.5173V41.9959C23.5173 43.0912 22.636 43.9725 21.5407 43.9725C20.4454 43.9725 19.5661 43.0912 19.5661 41.9959V33.0742H16.785C19.3507 28.1062 19.6404 24.6955 19.5661 20.4473L16.5232 26.6835C16.0428 27.668 14.8649 28.0721 13.8806 27.5917C12.8986 27.1117 12.4896 25.9327 12.9706 24.9478L17.8261 15.0045C18.164 14.312 18.8497 13.9171 19.5682 13.9029V13.8931L23.5642 13.8904ZM24.0076 24.6613C23.5957 24.6577 23.1736 24.6987 22.74 24.7941C22.9041 25.4613 23.1044 25.7628 23.3611 26.2043C23.6858 26.1063 24.2199 26.0442 24.5446 26.1906C24.8964 25.6812 25.0703 25.2276 25.2165 24.7941C24.822 24.7123 24.4194 24.6647 24.0075 24.6613H24.0076ZM22.5955 24.9328L22.3357 25.6828C22.1332 26.2693 22.0733 26.509 22.0564 26.7804C22.0314 27.1816 22.0175 27.1491 22.4841 27.837C22.6718 28.1137 22.8363 28.3405 22.8494 28.3409C22.8781 28.3418 23.74 27.1568 23.74 27.1164C23.74 27.1003 23.5688 26.8305 23.3591 26.5148C22.9257 25.8622 22.6849 25.3994 22.6326 25.1222L22.5955 24.9328ZM25.3727 24.9328L25.3337 25.1359C25.2845 25.3846 25.017 25.8977 24.6306 26.4894C23.132 28.5967 21.9454 30.1946 20.3454 32.3721C20.6698 32.8114 21.0156 33.2913 21.3766 33.6729C22.9586 31.1239 24.5736 29.6739 25.9066 27.125C25.9649 26.8259 25.8977 26.477 25.6351 25.7051L25.3727 24.9328ZM25.1267 28.9835L24.697 29.5948C24.4596 29.9313 24.2563 30.2353 24.2458 30.2706C24.2352 30.3061 24.4254 30.6142 24.6677 30.9562C25.3522 31.9091 25.918 32.761 26.6169 33.7002C26.9846 33.2428 27.2463 32.8808 27.6227 32.376C26.7912 31.2446 25.9584 30.1148 25.1267 28.9835Z" fill="#333333"/>
</svg>
